public/images/logo/vueJs.svg

<svg width="102" height="100" viewBox="0 0 102 100" fill="none" xmlns="http://www.w3.org/2000/svg">
<g clip-path="url(#clip0_0_220)">
<path d="M25.6522 76.5258C25.3532 76.5249 25.0607 76.6108 24.8115 76.7726C24.5573 76.9375 24.3246 77.2219 24.3246 77.5859C24.3246 77.6344 24.2959 77.7422 24.3915 77.9297L24.3668 77.8703L29.4748 94.118C29.5664 94.4226 29.7856 94.6555 30.0326 94.7898C30.2796 94.9242 30.549 94.9734 30.812 94.9734C31.3698 94.9734 31.9834 94.7125 32.1706 94.1234V94.1219L37.2738 77.8133V77.7539C37.2738 77.8367 37.2985 77.789 37.2985 77.6109C37.2985 77.2398 37.0571 76.9672 36.7989 76.7961C36.5405 76.6221 36.2349 76.528 35.9215 76.5258C35.531 76.5258 35.0832 76.7578 34.9334 77.2L34.9302 77.2047L30.8104 90.6844L26.6746 77.2289C26.6132 76.9883 26.4483 76.7875 26.2562 76.675C26.0642 76.5625 25.8546 76.5258 25.6522 76.5258ZM66.3366 77.3633C65.5238 77.3633 64.8385 77.9742 64.8385 78.7383C64.8385 79.5023 65.5127 80.1344 66.3366 80.1344C67.1447 80.1344 67.7869 79.4906 67.7869 78.7383C67.7869 77.9859 67.1335 77.3633 66.3366 77.3633ZM54.3604 82.5648C51.5809 82.5648 49.2915 84.7461 49.2915 87.3672V90.0531C49.2915 91.5211 49.8875 92.7797 50.9012 93.6476C51.9132 94.5164 53.3269 94.9969 54.9469 94.9969C56.1438 94.9969 57.12 94.7336 57.8172 94.3773C58.1673 94.1982 58.446 93.9992 58.6532 93.7805C58.8604 93.5617 59.0118 93.3234 59.0118 93.025C59.0118 92.7515 58.905 92.514 58.7305 92.3008C58.5559 92.0875 58.2826 91.8914 57.9288 91.8914C57.6738 91.8914 57.4778 91.9969 57.308 92.0992C57.1383 92.2008 56.9789 92.314 56.7869 92.4226C56.4028 92.639 55.8944 92.85 54.9955 92.85C53.9946 92.85 53.1611 92.5703 52.5858 92.1C52.012 91.6312 51.6773 90.9789 51.6773 90.1242V89.6273H56.8052C57.3527 89.6273 57.9607 89.6273 58.4866 89.2992C59.0126 88.9695 59.3313 88.3148 59.3313 87.3203C59.3313 84.5625 56.9853 82.5648 54.3604 82.5648ZM73.6336 82.5648C72.1562 82.5648 71.0693 83.0336 70.3712 83.7383C69.6731 84.4429 69.3719 85.3601 69.3719 86.2164C69.3719 87.3086 69.8222 88.0914 70.466 88.5922C71.1107 89.0945 71.9124 89.3469 72.675 89.5719C73.4376 89.7969 74.1675 89.9976 74.6576 90.2937C75.1477 90.5906 75.4107 90.9101 75.4107 91.5859C75.4107 91.9492 75.2991 92.2383 74.9987 92.4742C74.6974 92.7109 74.1619 92.8969 73.291 92.8969C72.2606 92.8969 71.6845 92.6476 71.2645 92.3937C71.0549 92.2664 70.886 92.1344 70.7123 92.0164C70.5386 91.8984 70.3409 91.7711 70.0644 91.7711C69.7321 91.7711 69.4867 91.9719 69.3377 92.1797C69.1869 92.3836 69.1047 92.6286 69.1026 92.8805C69.1026 93.1969 69.2604 93.475 69.4827 93.7164C69.7058 93.9578 70.0062 94.1726 70.376 94.3601C71.1147 94.7351 72.1323 94.9969 73.3404 94.9969C74.6528 94.9969 75.7318 94.6828 76.496 94.0734C77.2594 93.464 77.6754 92.5586 77.6754 91.5148C77.6754 90.3351 77.2379 89.4875 76.594 88.9265C75.9493 88.3664 75.1357 88.0773 74.362 87.8445C73.5882 87.6125 72.8431 87.4312 72.3451 87.1765C71.847 86.9219 71.6119 86.6867 71.6119 86.1453C71.6119 85.8523 71.7315 85.4836 72.0351 85.1922C72.3387 84.9023 72.8344 84.6664 73.6583 84.6664C74.3165 84.6664 74.8058 84.8148 75.1979 84.9711C75.3939 85.05 75.5644 85.132 75.7254 85.2008C75.8872 85.2687 76.0362 85.3359 76.2498 85.3359C76.6362 85.3359 76.9016 85.0859 77.0594 84.8539C77.2172 84.6219 77.308 84.3929 77.308 84.1304C77.308 83.8023 77.1 83.5695 76.8697 83.3961C76.6394 83.2226 76.3494 83.082 76.0147 82.9617C75.3453 82.7211 74.4911 82.5648 73.6336 82.5648ZM38.6851 82.7101C38.0388 82.7101 37.4802 83.1078 37.4802 83.6992V90.1C37.4802 92.6969 39.7322 94.9969 42.5244 94.9969C45.2704 94.9969 47.5686 92.7234 47.5686 90.1V83.6758C47.5686 83.3805 47.4029 83.1234 47.1845 82.9601C46.9662 82.7976 46.6889 82.7101 46.3877 82.7101C46.0865 82.7101 45.8075 82.7961 45.5844 82.9562C45.3613 83.1156 45.1828 83.3703 45.1828 83.6758V90.1C45.1828 91.4609 43.9731 92.7781 42.5244 92.7781C41.0526 92.7781 39.8668 91.4375 39.8668 90.1V83.6992C39.8668 83.3922 39.6955 83.1562 39.4843 82.9883C39.2732 82.8203 38.9943 82.7101 38.6851 82.7101ZM66.3374 82.7101C66.0346 82.7101 65.7557 82.7867 65.5326 82.9515C65.3095 83.1156 65.1581 83.3875 65.1581 83.6758V95.4695C65.1581 96.3547 65.0943 97.0969 64.8959 97.5469C64.6983 97.9961 64.464 98.1953 63.7962 98.1953C63.2057 98.1953 62.7124 98.7008 62.7124 99.3062C62.7124 99.557 62.7953 99.8336 63.0049 100.048C63.2145 100.263 63.5404 100.391 63.9173 100.391C65.1875 100.391 66.1597 99.8383 66.7383 98.9414C67.3184 98.0437 67.5431 96.8437 67.5431 95.4695V83.6758C67.5431 83.3687 67.3646 83.1015 67.1367 82.9437C66.9015 82.7864 66.6221 82.7047 66.3374 82.7101ZM54.3357 84.6422C55.9223 84.6422 56.9941 85.9445 56.9941 87.2711C56.9941 87.4156 56.9781 87.5101 56.9622 87.5531C56.9479 87.5961 56.9495 87.5906 56.9271 87.6055C56.8833 87.6336 56.6379 87.6953 56.1693 87.6953H51.6773V87.175C51.6773 85.7867 52.8607 84.6422 54.3357 84.6422ZM61.9156 91.9625C61.0486 91.9625 60.392 92.6656 60.392 93.4797C60.392 94.2609 61.039 94.9734 61.9156 94.9734C62.7459 94.9734 63.4137 94.2828 63.4137 93.4797C63.4137 92.6461 62.7348 91.9625 61.9156 91.9625Z" fill="#35495E"/>
<path d="M25.0251 0.3078L40.7467 0.312488L51.0232 17.0367L61.2638 0.314832L76.9718 0.310925L51.1021 44.3047L25.0251 0.3078Z" fill="#35495E"/>
<path d="M7.87866 0.424976L25.0115 0.310913L51.0868 44.307L76.9582 0.313257L94.1205 0.331226L51.0836 72.7406L7.87866 0.424976Z" fill="#41B883"/>
</g>
<defs>
<clipPath id="clip0_0_220">
<rect width="102" height="100" fill="white"/>
</clipPath>
</defs>
</svg>

<svg xmlns="http://www.w3.org/2000/svg" width="102" height="100" fill="none"><g clip-path="url(#a)"><path fill="#35495E" d="M25.652 76.526c-.299-.001-.591.085-.84.247-.255.165-.487.449-.487.813 0 .048-.03.156.067.344l-.025-.06 5.108 16.248c.091.305.31.538.558.672.247.134.516.183.779.183.558 0 1.171-.26 1.359-.85v-.001l5.103-16.309v-.06c0 .084.024.036.024-.142 0-.371-.24-.644-.5-.815a1.591 1.591 0 0 0-.877-.27c-.39 0-.838.232-.988.674l-.003.005-4.12 13.48-4.135-13.456a.918.918 0 0 0-.419-.554 1.175 1.175 0 0 0-.604-.15Zm40.685.837c-.813 0-1.499.611-1.499 1.375s.675 1.396 1.499 1.396c.808 0 1.45-.643 1.45-1.396 0-.752-.654-1.375-1.45-1.375ZM54.36 82.565c-2.78 0-5.069 2.181-5.069 4.802v2.686c0 1.468.597 2.727 1.61 3.595 1.012.868 2.426 1.349 4.046 1.349 1.197 0 2.173-.263 2.87-.62.35-.179.629-.378.836-.596.207-.22.359-.458.359-.756 0-.274-.107-.511-.282-.724-.174-.213-.447-.41-.801-.41-.255 0-.451.106-.621.208-.17.102-.33.215-.521.324-.384.216-.893.427-1.791.427-1.001 0-1.835-.28-2.41-.75-.574-.469-.909-1.121-.909-1.976v-.497h5.128c.548 0 1.156 0 1.682-.328.526-.33.844-.984.844-1.979 0-2.757-2.346-4.755-4.97-4.755Zm19.274 0c-1.478 0-2.565.469-3.263 1.173-.698.705-1 1.622-1 2.478 0 1.093.451 1.875 1.095 2.376.645.502 1.446.755 2.209.98.763.225 1.493.426 1.983.722.49.297.753.616.753 1.292 0 .363-.112.652-.412.888-.302.237-.837.423-1.708.423-1.03 0-1.606-.25-2.026-.503-.21-.128-.379-.26-.553-.378-.173-.118-.371-.245-.648-.245-.332 0-.577.2-.726.409-.151.204-.233.449-.235.7 0 .317.157.595.38.836.223.242.523.457.893.644.739.375 1.756.637 2.964.637 1.313 0 2.392-.314 3.156-.924.763-.609 1.18-1.514 1.18-2.558 0-1.18-.438-2.028-1.082-2.588-.645-.56-1.458-.85-2.232-1.083-.774-.231-1.519-.413-2.017-.667-.498-.255-.733-.49-.733-1.032 0-.293.12-.661.423-.953.304-.29.8-.526 1.623-.526.659 0 1.148.149 1.54.305.196.079.366.161.527.23.162.068.311.135.525.135.386 0 .652-.25.81-.482.157-.232.248-.461.248-.724 0-.328-.208-.56-.438-.734a3.245 3.245 0 0 0-.855-.434 7.276 7.276 0 0 0-2.381-.397Zm-34.949.145c-.646 0-1.205.398-1.205.99v6.4c0 2.597 2.252 4.897 5.044 4.897 2.746 0 5.045-2.274 5.045-4.897v-6.424c0-.296-.166-.553-.385-.716a1.325 1.325 0 0 0-.796-.25c-.301 0-.58.086-.804.246-.223.16-.401.414-.401.72V90.1c0 1.36-1.21 2.678-2.659 2.678-1.471 0-2.657-1.34-2.657-2.678v-6.4c0-.308-.171-.544-.383-.712a1.285 1.285 0 0 0-.799-.278Zm27.652 0c-.302 0-.581.077-.804.242a.916.916 0 0 0-.375.724v11.793c0 .886-.064 1.628-.262 2.078-.198.45-.432.648-1.1.648-.59 0-1.084.506-1.084 1.111 0 .251.083.528.293.742.21.215.535.343.912.343 1.27 0 2.243-.553 2.821-1.45.58-.897.805-2.097.805-3.472V83.677c0-.307-.178-.575-.406-.732a1.391 1.391 0 0 0-.8-.234Zm-12.001 1.932c1.586 0 2.658 1.303 2.658 2.63a.925.925 0 0 1-.032.281c-.014.043-.013.038-.035.053-.044.028-.29.09-.758.09h-4.492v-.521c0-1.388 1.184-2.533 2.659-2.533Zm7.58 7.32a1.52 1.52 0 0 0-1.524 1.518c0 .78.647 1.493 1.524 1.493.83 0 1.498-.69 1.498-1.493 0-.834-.68-1.517-1.498-1.517ZM25.025.308l15.722.004 10.276 16.725L61.263.315 76.973.31l-25.87 43.994L25.025.308Z"/><path fill="#41B883" d="M7.879.425 25.012.311l26.075 43.996L76.958.313l17.163.018-43.037 72.41L7.879.425Z"/></g><defs><clipPath id="a"><path fill="#fff" d="M0 0h102v100H0z"/></clipPath></defs></svg>
